!!!COM: Palestrina, Giovanni Perluigi da
!!!OPR: Missa Ave regina coelorum
!!!OMD: Credo
!!!OTL: Et iterum
**kern	**kern	**kern	**kern
*Ibass	*Itenor	*Icalto	*Icant
!Bassus	!Tenor	!Altus	!Cantus
*clefF4	*clefGv2	*clefG2	*clefG2
*k[]	*k[]	*k[]	*k[]
*C:ion	*C:ion	*C:ion	*C:ion
*M4/2	*M4/2	*M4/2	*M4/2
=150	=150	=150	=150
0r	0r	2r	1cc
.	.	2cc	.
.	.	2a	2ee
.	.	2a	2ff
=151	=151	=151	=151
0r	0r	2g	1gg
.	.	2e	.
.	.	1a	2ff
.	.	.	[2ee
=152	=152	=152	=152
1r	1r	1f	2ee]
.	.	.	2dd
1c	2r	1e	2ee
.	2c	.	2ee
=153	=153	=153	=153
2A	2e	0r	2cc
2A	2f	.	2cc
2G	1g	.	1b
2E	.	.	.
=154	=154	=154	=154
1A	2f	1cc	0r
.	1e	.	.
1F	.	2a	.
.	2d	2a	.
=155	=155	=155	=155
1E	1e	2g	2r
.	.	2e	2gg
1r	2r	1a	2ff
.	2A	.	[2ee
=156	=156	=156	=156
1D	2A	1f	4ee]
.	.	.	8dd
.	.	.	8cc
.	2B	.	2dd
2.A	2.c	2e	2ee
.	.	2A	2ee
4B	4d	.	.
=157	=157	=157	=157
2c	4e	2A	2ee
.	4f	.	.
2G	1g	2B	2dd
2A	.	2.c	1cc
2A	2f#	.	.
.	.	4d	.
=158	=158	=158	=158
1G	1g	4e	2.b
.	.	4f	.
.	.	1g	.
.	.	.	8a
.	.	.	8g
1r	1d	.	2a
.	.	2f#	2a
=159	=159	=159	=159
0G	1r	1g	1b
.	1d	2r	2r
.	.	[2g	[2b
=160	=160	=160	=160
1E	1e	2g]	2b]
.	.	2g	2cc
2.D	[1f	[1a	1dd
4E	.	.	.
=161	=161	=161	=161
4F	2f]	1a]	2.cc
4G	.	.	.
4A	2.e	.	.
4B	.	.	4dd
1c	.	1g	1ee
.	4d	.	.
.	4e	.	.
.	4f	.	.
=162	=162	=162	=162
1G	2g	1b	0dd
.	2g	.	.
1r	2f	2a	.
.	2g	2b	.
=163	=163	=163	=163
0r	2.a	2.cc	2r
.	.	.	2ee
.	4g	4b	.
.	2f	2a	2dd
.	2e	2g	2ee
=164	=164	=164	=164
2r	1d	0a	2.ff
2.d	.	.	.
.	.	.	4ee
.	2r	.	2dd
8c	.	.	.
8B	.	.	.
2A	2e	.	2cc
=165	=165	=165	=165
2B	2d	1g	2dd
2c	2e	.	2.cc
1F	2.f	1a	.
.	.	.	4b
.	.	.	4cc
.	4e	.	4a
=166	=166	=166	=166
2G	2d	2g	2b
2A	2c	2f#	1cc
1G	1d	1g	.
.	.	.	2b
=167	=167	=167	=167
0C	1c	0e	0cc
.	2r	.	.
.	[2c	.	.
=168	=168	=168	=168
1F	2c]	0r	0r
.	2d	.	.
2G	2.e	.	.
[2A	.	.	.
.	4f	.	.
=169	=169	=169	=169
4A]	2e	0r	0r
4A	.	.	.
2B	2d	.	.
2.c	2e	.	.
.	[2g	.	.
8B	.	.	.
8A	.	.	.
=170	=170	=170	=170
2G	4g]	0r	0r
.	4f	.	.
2.A	4e	.	.
.	4d	.	.
.	4c	.	.
8G	4d	.	.
8F	.	.	.
2E	[2e	.	.
=171	=171	=171	=171
2.F	2e]	2r	1r
.	2d	1a	.
4F	.	.	.
1E	1e	.	2r
.	.	2g	[2ee
=172	=172	=172	=172
0r	0r	2e	2ee]
.	.	2f	2dd
.	.	2g	2b
.	.	4f	2cc
.	.	4e	.
=173	=173	=173	=173
0r	2r	2.d	2.dd
.	1d	.	.
.	.	4e	8cc
.	.	.	8b
.	.	4f	4a
.	.	4g	4b
.	2c	[2a	[2cc
=174	=174	=174	=174
0r	2A	2a]	2cc]
.	2B	1g	2b
.	2c	.	1a
.	2d	2f#	.
=175	=175	=175	=175
2r	1e	4g	0g
.	.	4f	.
1c	.	4e	.
.	.	4d	.
.	2r	1e	.
2c	[2g	.	.
=176	=176	=176	=176
2B	2g]	0r	0r
2A	2f	.	.
2c	2e	.	.
2B	2d	.	.
=177	=177	=177	=177
2A	2f	0r	0r
2.G	2e	.	.
.	2d	.	.
4F	.	.	.
4E	[2e	.	.
4D	.	.	.
=178	=178	=178	=178
4C	4e]	0r	0r
4D	4d	.	.
2E	4c	.	.
.	4B	.	.
2F#	2A	.	.
[2G	2G	.	.
=179	=179	=179	=179
2G]	1A	1r	1r
2F#	.	.	.
2G	2G	2r	2r
[2G	[2d	[2g	[2b
=180	=180	=180	=180
2G]	2d]	2g]	2b]
2G	2d	2g	2b
1c	1e	1g	1cc
=181	=181	=181	=181
2G	2d	2g	2b
2B	2d	2g	2dd
2.A	2e	2a	2cc
.	2f#	2a	2cc
4A	.	.	.
=182	=182	=182	=182
1G	2.g	2d	2b
.	.	1g	1b
.	8f	.	.
.	8e	.	.
1r	1d	.	.
.	.	2f#	2a
=183	=183	=183	=183
1.G	2r	1.g	2.b
.	1B	.	.
.	.	.	4cc
.	.	.	[1dd
2F#	2A	2a	.
=184	=184	=184	=184
2G	2B	1g	2dd]
2E	2c#	.	2ee
[1D	2.d	2.f	[1ff
.	8c	4g	.
.	8B	.	.
=185	=185	=185	=185
1D]	2A	2a	1ff]
.	2B	2d	.
1C	2c	1g	1ee
.	2e	.	.
=186	=186	=186	=186
2r	2e	2r	1b
2G	2d	2g	.
2G	4e	2g	2b
.	4d	.	.
2F#	[2d	2a	2a
=187	=187	=187	=187
2G	4d]	2g	2b
.	4G	.	.
2E	2.c	2g	2cc
1D	.	1f	1dd
.	8B	.	.
.	8A	.	.
.	2B	.	.
=188	=188	=188	=188
1C	2c	2e	1ee
.	1e	1g	.
1r	.	.	2r
.	2f	2a	[2dd
=189	=189	=189	=189
0r	2g	2b	2dd]
.	2e	2g	2ee
.	1d	1a	2ff
.	.	.	2dd
=190	=190	=190	=190
1r	2.c	1cc	2ee
.	.	.	2.gg
.	4d	.	.
2r	1e	2b	.
.	.	.	4ff
[2A	.	[2cc	4ee
.	.	.	4dd
=191	=191	=191	=191
2A]	1f	2cc]	2cc
2B	.	4b	2dd
.	.	4a	.
2c	2e	4g	1ee
.	.	4e	.
2A	2c	2a	.
=192	=192	=192	=192
2B	1g	2d	2dd
2.c	.	2g	2.ee
.	2e	2g	.
4B	.	.	4dd
4A	[2f	[2a	4cc
4G	.	.	4b
=193	=193	=193	=193
2F	4f]	4a]	2a
.	4e	4g	.
2A	4d	4f	1cc
.	4c	4e	.
1G	1d	1g	.
.	.	.	2b
=194	=194	=194	=194
1C	2c	1g	2cc
.	2e	.	2cc
1r	2f	2r	2dd
.	2e	2g	2ee
=195	=195	=195	=195
0r	1d	2a	1ff
.	.	2b	.
.	1c	1cc	2ee
.	.	.	2gg
=196	=196	=196	=196
2r	0r	2a	4ff
.	.	.	4ee
2G	.	2g	1ee
2A	.	2.f	.
2B	.	.	2dd
.	.	4f	.
=197	=197	=197	=197
1c	2r	1e	1ee
.	2c	.	.
2B	2d	2r	1r
2c	2e	2g	.
=198	=198	=198	=198
4F	1f	2a	0r
4G	.	.	.
4A	.	2a	.
4B	.	.	.
2.c	2e	4g	.
.	.	4f	.
.	2g	4e	.
4B	.	4d	.
=199	=199	=199	=199
2.A	2f	1c	2r
.	2e	.	2cc
4G	.	.	.
2F	2d	2A	2dd
2E	[2c	2G	2ee
=200	=200	=200	=200
2D	4c]	2d	2.ff
.	8B	.	.
.	8A	.	.
2D	2B	2d	.
.	.	.	4ff
1C	1c	2G	2ee
.	.	2c	2gg
=201	=201	=201	=201
2r	0r	2d	2ff
2G	.	2e	1ee
2A	.	2.f	.
2B	.	.	2dd
.	.	4f	.
=202	=202	=202	=202
2.c	2r	2.e	1ee
.	2c	.	.
4c	.	4f	.
2B	2d	1g	1r
2c	2e	.	.
=203	=203	=203	=203
4F	2.f	1a	0r
4G	.	.	.
4A	.	.	.
4B	4f	.	.
2.c	2e	4g	.
.	.	4f	.
.	2g	4e	.
4B	.	4d	.
=204	=204	=204	=204
2A	4f	2c	1r
.	4e	.	.
2G	1e	2B	.
2F	.	2A	2r
2F	2d	2a	2a
=205	=205	=205	=205
1E	1e	2a	2cc
.	.	2g#	2b
2r	2r	2.a	4a
.	.	.	4b
2A	2A	.	4cc
.	.	8g	4dd
.	.	8f	.
=206	=206	=206	=206
2A	2c	0e	0ee
2G#	2B	.	.
2.A	4A	.	.
.	4B	.	.
.	4c	.	.
4B	4d	.	.
=207	=207	=207	=207
2c	2e	0r	0r
2A	2f	.	.
2B	2g	.	.
2c	2e	.	.
=208	=208	=208	=208
1d	1f	1r	2r
.	.	.	1dd
1A	2e	2r	.
.	[2f	[2a	2cc
=209	=209	=209	=209
0r	2f]	2a]	2dd
.	2e	2g	2ee
.	2d	2a	2ff
.	2d	2b	2dd
=210	=210	=210	=210
0r	2c	2cc	2ee
.	2d	2a	2ff
.	2G	2b	4gg
.	.	.	4ff
.	4A	4cc	4ee
.	4B	4b	4dd
=211	=211	=211	=211
0r	4c	4a	4cc
.	4d	4g	4b
.	2e	1g	4b
.	.	.	8a
.	.	.	8g
.	1d	.	1a
.	.	2f#	.
=212	=212	=212	=212
1r	1G	2g	1b
.	.	1g	.
[1c	2r	.	[1ee
.	[2g	[2e	.
=213	=213	=213	=213
1c]	2g]	2e]	1ee]
.	2.e	2.cc	.
1A	.	.	1cc
.	8d	4b	.
.	8e	.	.
.	2f	[2a	.
=214	=214	=214	=214
1B	2.d	4a]	1dd
.	.	8g#	.
.	.	8f#	.
.	.	2g#	.
.	4e	.	.
1A	4f	2a	1cc
.	4e	.	.
.	4e	[2cc	.
.	8d	.	.
.	8c	.	.
=215	=215	=215	=215
1G	1d	2cc]	1gg
.	.	2b	.
1A	1c	2.a	2ff
.	.	.	[2ee
.	.	8g	.
.	.	8f	.
=216	=216	=216	=216
2.c	2r	1e	4ee]
.	.	.	4dd
.	1g	.	1cc
4c	.	.	.
1d	.	1f	.
.	2f	.	2b
=217	=217	=217	=217
1c	2f	1g	1cc
.	2e	.	.
1r	1a	2f	1cc
.	.	[2f	.
=218	=218	=218	=218
1c	1g	2f]	2r
.	.	1e	1cc
1G	2r	.	.
.	2g	[2d	2b
=219	=219	=219	=219
1A	2f	2d]	0a
.	2e	2c	.
1F	2d	2.f	.
.	2c	.	.
.	.	4e	.
=220	=220	=220	=220
0G	2B	2d	0g
.	2e	1c	.
.	1d	.	.
.	.	2B	.
=221	=221	=221	=221
[0C	1g	2c	[0e
.	.	2c	.
.	2r	2A	.
.	2c	2G	.
=222	=222	=222	=222
0C]	2A	2.c	1e]
.	2G	.	.
.	.	4d	.
.	1c	4e	2r
.	.	4f	.
.	.	4g	2cc
.	.	4e	.
=223	=223	=223	=223
0r	2d	2f	2a
.	2e	2g	2g
.	[1f	2a	1cc
.	.	4a	.
.	.	4g	.
=224	=224	=224	=224
0r	2f]	4a	2dd
.	.	4b	.
.	2e	1cc	2ee
.	1d	.	[1ff
.	.	2b	.
=225	=225	=225	=225
1r	4c	2cc	2ff]
.	4d	.	.
.	4e	4b	2ee
.	4f	4a	.
1G	4g	1b	4dd
.	4a	.	4cc
.	[2g	.	4b
.	.	.	4a
=226	=226	=226	=226
2E	4g]	1g	2b
.	4f	.	.
2C	2e	.	1cc
1G	1d	2r	.
.	.	2g	2b
=227	=227	=227	=227
2A	2r	2e	2cc
2B	2g	2d	2dd
[1c	2e	1g	1ee
.	4c	.	.
.	4d	.	.
=228	=228	=228	=228
2c]	4e	2a	0r
.	4f	.	.
2B	1g	2b	.
1A	.	[1cc	.
.	2f	.	.
=229	=229	=229	=229
1G	2e	2cc]	1r
.	2d	2b	.
2.F	[1f	1a	2r
.	.	.	2cc
4G	.	.	.
=230	=230	=230	=230
4A	2f]	2.cc	2a
4B	.	.	.
2.c	2e	.	2g
.	.	8b	.
.	.	8a	.
.	4e	2g	1cc
4B	4d	.	.
4A	4c	[2a	.
4G	4B	.	.
=231	=231	=231	=231
2F	2A	2a]	2dd
2E	1c	2g	2ee
1D	.	2.f	[1ff
.	2B	.	.
.	.	4g	.
=232	=232	=232	=232
1C	2r	4a	2ff]
.	.	4b	.
.	2c	1cc	2ee
1r	2A	.	2cc
.	2G	4b	2dd
.	.	4a	.
=233	=233	=233	=233
0r	1c	2g	2.ee
.	.	1a	.
.	.	.	8dd
.	.	.	8cc
.	2d	.	1b
.	2e	2g#	.
=234	=234	=234	=234
1F	1.f	1a	2a
.	.	.	4f
.	.	.	4g
2D	.	2r	4a
.	.	.	4b
2C	2e	2g	[2cc
=235	=235	=235	=235
1G	1d	2.g	4cc]
.	.	.	8b
.	.	.	8a
.	.	.	2b
.	.	4f	.
2A	2r	2e	2cc
2B	[2g	2d	2dd
=236	=236	=236	=236
1.c	4g]	4c	2ee
.	4f	4d	.
.	4e	4e	2cc
.	4d	4f	.
.	2c	1g	2ee
2B	2d	.	[2dd
=237	=237	=237	=237
1A	2e	2a	4dd]
.	.	.	4cc
.	4d	2f	1cc
.	4c	.	.
1G	1d	1g	.
.	.	.	2b
=238	=238	=238	=238
0C	0c	0e	0cc
==	==	==	==
*-	*-	*-	*-
!!!CDT: 1525/^1526/-1594/2/2
!!!OCY: Italia
!!!AGN: Mass (Paraphrase)
!!!AST: renaissance, vocal
!!!ASW: Antiphon
!!!PWK: Masses, Book 9
!!!RNB: Cadence finals: G
!!!YOR: Le Opere Complete, v. 25, p. 1
!!!YOO: Rome, Italy: Fratelli Scalera
!!!END: 1992//
!!!EED: John Miller
!!!YEC: Copyright 2000, John Miller
!!!YEN: United States of America
!!!YEM: Rights to all derivative electronic formats reserved.
!!!YEM: Refer to licensing agreement for further details.
!!!YEM: This file must be accompanied by the licensing agreement.
!!!YEM: A copy of the licensing agreement may be found at http://www.music-cog.ohio-state.edu/HumdrumDatabases/Palestrina/license.txt
!!!EMD: converted to Humdrum by Bret Aarden
